shell/res/secondaryleftmenu/ExperienceplanWhite.svg

<svg id="图层_1" data-name="图层 1" xmlns="http://www.w3.org/2000/svg" viewBox="0 0 24 24"><defs><style>.cls-1{fill:#fff;}</style></defs><title>experienceplanWhite</title><path class="cls-1" d="M13.83,16.55A1,1,0,0,1,13,17h0a1,1,0,0,1-.8-.4L9.89,13.52,8.71,14.71A1,1,0,0,1,8,15H3.66a47.27,47.27,0,0,0,7.72,7.78l.62.5.62-.5A44.2,44.2,0,0,0,21,14H15.54Z"/><path class="cls-1" d="M9.29,11.29a1,1,0,0,1,.78-.29,1,1,0,0,1,.73.4L13,14.27l1.22-1.82A1,1,0,0,1,15,12h7l.15,0A7.88,7.88,0,0,0,23,8.74,5.88,5.88,0,0,0,17,3a6.08,6.08,0,0,0-5,2.57A6.08,6.08,0,0,0,7,3,5.89,5.89,0,0,0,1,8.83,8.69,8.69,0,0,0,2.35,13H7.59Z"/></svg>

<?xml version="1.0" encoding="utf-8"?>
<!-- Generator: Adobe Illustrator 24.0.2, SVG Export Plug-In . SVG Version: 6.00 Build 0)  -->
<!DOCTYPE svg PUBLIC "-//W3C//DTD SVG 1.1//EN" "http://www.w3.org/Graphics/SVG/1.1/DTD/svg11.dtd" [
	<!ENTITY ns_extend "http://ns.adobe.com/Extensibility/1.0/">
	<!ENTITY ns_ai "http://ns.adobe.com/AdobeIllustrator/10.0/">
	<!ENTITY ns_graphs "http://ns.adobe.com/Graphs/1.0/">
	<!ENTITY ns_vars "http://ns.adobe.com/Variables/1.0/">
	<!ENTITY ns_imrep "http://ns.adobe.com/ImageReplacement/1.0/">
	<!ENTITY ns_sfw "http://ns.adobe.com/SaveForWeb/1.0/">
	<!ENTITY ns_custom "http://ns.adobe.com/GenericCustomNamespace/1.0/">
	<!ENTITY ns_adobe_xpath "http://ns.adobe.com/XPath/1.0/">
]>
<svg version="1.1" id="图层_1" xmlns:x="&ns_extend;" xmlns:i="&ns_ai;" xmlns:graph="&ns_graphs;"
	 xmlns="http://www.w3.org/2000/svg" xmlns:xlink="http://www.w3.org/1999/xlink" x="0px" y="0px" viewBox="0 0 24 24"
	 enable-background="new 0 0 24 24" xml:space="preserve">
<metadata>
	<sfw  xmlns="&ns_sfw;">
		<slices></slices>
		<sliceSourceBounds  bottomLeftOrigin="true" height="1298" width="1504" x="-206" y="-620"></sliceSourceBounds>
	</sfw>
</metadata>
<g>
	<path fill="#FFFFFF" d="M13.8,16.6C13.7,16.8,13.4,17,13,17c0,0,0,0,0,0c-0.3,0-0.6-0.1-0.8-0.4l-2.3-3.1l-1.2,1.2
		C8.5,14.9,8.3,15,8,15H3.7c2.8,3.8,7,7.2,7.7,7.8l0.6,0.5l0.6-0.5c0.7-0.6,5.6-4.5,8.4-8.8h-5.5L13.8,16.6z"/>
	<path fill="#FFFFFF" d="M9.3,11.3c0.2-0.2,0.5-0.3,0.8-0.3c0.3,0,0.6,0.2,0.7,0.4l2.2,2.9l1.2-1.8c0.2-0.3,0.5-0.4,0.8-0.4h7
		c0.1,0,0.1,0,0.1,0c0.5-1.1,0.9-2.2,0.9-3.3C23,5.6,20.3,3,17,3c-2.1,0-3.9,1-5,2.6C10.9,4,9.1,3,7,3C3.7,3,1,5.6,1,8.8
		c0,1.3,0.5,2.7,1.3,4.2h5.2L9.3,11.3z"/>
</g>
</svg>
